X:1
T:Title
%%score { ( 1 2 ) | ( 3 4 ) }
L:1/8
Q:1/4=100
M:6/8
K:A
V:1 treble nm="Grand Piano"
V:2 treble 
V:3 bass 
V:4 bass 
V:1
 [CE]2 [CE] z D[CE] | [CF]3 [CA]3 | [Cc]2 [Cc] cB[CA] | [Cc]6 | [CE]2 [CE][K:bass] [E,C]2 [E,CE] | %5
w: Frederick~N.~Shackley * * *|||||
 .[A,CF]3 [A,CA]3 | [^DA]2 [F,DF] .[A,DF]2 [A,FA] | [EB]6 | [Dd]2 [Dd] dc[DB] | c3 A3 | %10
w: |||||
 F2 F [B,FB]2 [B,FA] | [B,EG]6 | [A,CA]2 [A,CA] .[A,FA]2 [A,FA] | [Ec]2 [Ed] [Ee]3 | [Ec]3 [CE]3 | %15
w: |||||
 [A,DF]3 [G,DB]3 |[M:7/8] [CA]-[CA]-[CA]- [CA]3 z |[M:3/4] [Cc]2 [Cc]c B[CA] | [Cc]3 [Ce]3 | %19
w: ||||
 [Dd]2 [Dd]d c[DB] | [DF]6 | E2 EB ^AB | [Cc]3 [CA]3 | [^DB]2 [DF][DF]- [DF]/[DG]/[DF] | E6 | %25
w: ||||||
 [Cc]2 [Cc][Cc] B[CA] | [Cc]3 [Ce]3 | [Ee]2 [A,EA]A z [Ec] | F3- [EF]3 | [DF]2 [DG]A GA | %30
w: |||||
 c2 [Ed] [Ee]3 | [Ec]3 [CE]3 | [A,DF]3 [G,DB]3 | [CA]6 |] %34
w: ||||
V:2
 z3 .C3 | x6 | z3 .C3 | x6 | x3[K:bass] x3 | x6 | x6 | x6 | z3 .D3 | x6 | x6 | x6 | x6 | x6 | x6 | %15
 x6 |[M:7/8] x7 |[M:3/4] z2 z .C3 | x6 | z2 z .D3 | z2 z B,2 A, | x6 | x6 | x6 | z2 z D3 | x6 | %26
 x6 | z2 z .[A,E]3 | D4 z2 | x6 | x6 | x6 | x6 | x6 |] %34
V:3
 [A,,A,]2 [A,,A,] [A,,A,]2 [A,,A,] | [A,,A,]3 [A,,A,]3 | [A,,A,]2 [A,,A,] [A,,E,]2 [A,,E,] | %3
 [A,,A,]6 | [A,,A,]2 [A,,A,] z DA,, | z2 G A,,3 | [B,,F,]2 B,, z GB,, | [E,G,]6 | %8
 [B,,F,]2 [B,,F,] B,A,[B,,G,] | [F,A,C]3 [F,A,C]3 | [D,A,D]2 [D,A,D] D,2 D, | E,6 | F,2 F, z GD, | %13
 [E,A,]2 [D,A,] [C,A,]3 | [E,A,]3 [E,A,]3 | [E,,E,]3 [E,,E,]3 | %16
[M:7/8] [A,,A,]-[A,,A,]-[A,,A,]- [A,,A,]3 z |[M:3/4] [A,,E,]2 [A,,E,] [A,,E,]2 [A,,E,] | %18
 [A,,E,]3 [A,,E,]3 | [A,,F,]2 [A,,F,] [A,,F,]2 [A,,F,] | F,4 z2 | %21
 [E,G,D]2 [E,G,D] [E,G,D]2 [E,G,D] | [A,,A,]3 [A,,A,]3 | %23
 [B,,F,]2 [B,,A,][B,,A,]- [B,,A,]/[B,,B,]/[B,,A,] | [E,G,]6 | [A,,E,]2 [A,,E,] [A,,E,]2 [A,,E,] | %26
 [A,,E,]3 [A,,E,]3 | [C,A,]2 .C,2[K:treble] B[K:bass][C,A,] | [D,A,]3 [C,^A,]3 | %29
 [B,,B,]2 [B,,B,] [F,A,C]2 [F,A,C] | [E,A,E]2 [D,A,] [C,A,]3 | [E,A,]3 [E,A,]3 | %32
 [E,,E,]3 [E,,E,]3 | [A,,A,]6 |] %34
V:4
 x6 | x6 | x6 | x6 | z3 .A,,3 | A,,3 z3 | z3 .B,,3 | x6 | z3 .B,,3 | x6 | x6 | x6 | z3 .D,3 | x6 | %14
 x6 | x6 |[M:7/8] x7 |[M:3/4] x6 | x6 | x6 | A,,6 | x6 | x6 | x6 | x6 | x6 | x6 | %27
 z2 z .C,3[K:treble][K:bass] | x6 | x6 | x6 | x6 | x6 | x6 |] %34

